webpage/images/icons/icon-chair.svg

<svg width="91" height="91" xmlns="http://www.w3.org/2000/svg">

 <g>
  <title>background</title>
  <rect fill="none" id="canvas_background" height="402" width="582" y="-1" x="-1"/>
 </g>
 <g>
  <title>Layer 1</title>
  <circle id="svg_2" r="36.418" fill="#9AE0FF" cy="48.433" cx="45.503"/>
  <polygon id="svg_4" points="83.873,74.296 62.836,63.313 35.522,63.313 2.496,28.724 9.379,22.39 39.39,54.547 65.269,54.547     88.504,66.556   " fill="#f5f9f8"/>
  <path id="svg_5" fill="#f5f9f8" d="m26.316,13.175c3.431,-4.612 9.953,-5.576 14.569,-2.149c4.617,3.431 5.578,9.951 2.15,14.569l-16.719,-12.42z"/>
  <rect id="svg_7" y="77.556" x="24.102" width="47.293" height="7.672" fill="#2cbfd3"/>
  <path id="svg_8" fill="#3c393d" d="m90.634,65.95c-0.168,-0.59 -0.568,-1.081 -1.112,-1.36l-15.912,-8.224l0,-50.597c0,-1.222 -0.992,-2.212 -2.215,-2.212l-21.384,0c-0.388,0 -0.77,0.103 -1.105,0.294l-7.957,4.586c-1.903,-1.095 -4.04,-1.678 -6.263,-1.678c-3.98,0 -7.773,1.905 -10.146,5.095l-1.321,1.777l20.276,15.063l1.32,-1.777c3.492,-4.705 3.204,-11.054 -0.3,-15.424l6.089,-3.509l18.578,0l0,46.094l-2.896,-1.496c-0.314,-0.164 -0.663,-0.247 -1.017,-0.247l-12.985,0l2.667,-5.442l8.497,0l0,-4.427l-22.742,0l0,4.427l9.313,0l-2.667,5.442l-7,0l-29.354,-31.457c-0.83,-0.889 -2.222,-0.943 -3.118,-0.117l-6.884,6.335c-0.437,0.402 -0.694,0.962 -0.713,1.556c-0.02,0.596 0.2,1.173 0.611,1.603l33.026,34.588c0.111,0.117 0.236,0.218 0.368,0.306l0,10.194l-12.4,0l0,12.1l51.722,0l0,-12.1l-13.703,0l0,-9.815l2.385,0l20.558,10.732c0.325,0.17 0.677,0.251 1.021,0.251c0.757,0 1.488,-0.387 1.902,-1.078l4.631,-7.74c0.316,-0.525 0.398,-1.155 0.23,-1.743zm-48.3,-43.635l-12.679,-9.419c1.418,-1.103 3.169,-1.709 5.029,-1.709c1.769,0 3.456,0.559 4.88,1.617c3.014,2.238 4.049,6.165 2.77,9.511zm26.849,57.455l0,3.245l-42.868,0l0,-3.245l7.973,0l0,0.001l25.619,0l0,-0.001l9.276,0zm-30.467,-4.427l0,-9.813l16.764,0l0,9.813l-16.764,0zm44.33,-3.976l-19.187,-10.015c-0.316,-0.166 -0.668,-0.251 -1.024,-0.251l-26.365,0l-30.816,-32.274l3.606,-3.318l28.51,30.55c0.419,0.449 1.005,0.704 1.619,0.704l25.34,0l20.666,10.679l-2.349,3.925z"/>
 </g>
</svg>

<?xml version="1.0" ?><!DOCTYPE svg  PUBLIC '-//W3C//DTD SVG 1.1//EN'  'http://www.w3.org/Graphics/SVG/1.1/DTD/svg11.dtd'><svg enable-background="new 0 0 91 91" height="91px" id="Layer_1" version="1.1" viewBox="0 0 91 91" width="91px" xml:space="preserve" xmlns="http://www.w3.org/2000/svg" xmlns:xlink="http://www.w3.org/1999/xlink"><g><circle cx="45.503" cy="48.433" fill="#9AE0FF" r="36.418"/><g><polygon fill="#F4F2E8" points="83.873,74.296 62.836,63.313 35.522,63.313 2.496,28.724 9.379,22.39 39.39,54.547 65.269,54.547     88.504,66.556   "/><path d="M26.316,13.175c3.431-4.612,9.953-5.576,14.569-2.149c4.617,3.431,5.578,9.951,2.15,14.569L26.316,13.175z    " fill="#F4F2E8"/><g><rect fill="#68C1E0" height="7.672" width="47.293" x="24.102" y="77.556"/><path d="M90.634,65.95c-0.168-0.59-0.568-1.081-1.112-1.36l-15.912-8.224V5.769c0-1.222-0.992-2.212-2.215-2.212     H50.011c-0.388,0-0.77,0.103-1.105,0.294l-7.957,4.586c-1.903-1.095-4.04-1.678-6.263-1.678c-3.98,0-7.773,1.905-10.146,5.095     l-1.321,1.777l20.276,15.063l1.32-1.777c3.492-4.705,3.204-11.054-0.3-15.424l6.089-3.509h18.578v46.094l-2.896-1.496     c-0.314-0.164-0.663-0.247-1.017-0.247H52.284l2.667-5.442h8.497v-4.427H40.706v4.427h9.313l-2.667,5.442h-7L10.998,20.878     c-0.83-0.889-2.222-0.943-3.118-0.117l-6.884,6.335c-0.437,0.402-0.694,0.962-0.713,1.556c-0.02,0.596,0.2,1.173,0.611,1.603     L33.92,64.843c0.111,0.117,0.236,0.218,0.368,0.306v10.194h-12.4v12.1h51.722v-12.1H59.907v-9.815h2.385L82.85,76.26     c0.325,0.17,0.677,0.251,1.021,0.251c0.757,0,1.488-0.387,1.902-1.078l4.631-7.74C90.72,67.168,90.802,66.538,90.634,65.95z      M42.334,22.315l-12.679-9.419c1.418-1.103,3.169-1.709,5.029-1.709c1.769,0,3.456,0.559,4.88,1.617     C42.578,15.042,43.613,18.969,42.334,22.315z M69.183,79.77v3.245H26.315V79.77h7.973v0.001h25.619V79.77H69.183z M38.716,75.343     v-9.813H55.48v9.813H38.716z M83.046,71.367L63.859,61.352c-0.316-0.166-0.668-0.251-1.024-0.251H36.47L5.654,28.827l3.606-3.318     l28.51,30.55c0.419,0.449,1.005,0.704,1.619,0.704h25.34l20.666,10.679L83.046,71.367z" fill="#3B6A75"/></g></g></g></svg>
